dist/assets/img/svg/adv-04.svg

<svg width="108" height="108" viewBox="0 0 108 108" fill="none" xmlns="http://www.w3.org/2000/svg">
<path d="M57.6 106V104.455C57.6 96.7815 51.4286 90.55 43.7143 90.55C36 90.55 29.8286 96.7815 29.8286 104.455V106H10.2857C7.55777 106 4.94156 104.915 3.01262 102.983C1.08367 101.052 0 98.4317 0 95.7V76.13H1.54286C9.20571 76.13 15.4286 69.95 15.4286 62.225C15.4286 54.5 9.20571 48.32 1.54286 48.32H0V28.75C0 23.085 4.62857 18.45 10.2857 18.45H25.92C27.1543 9.695 34.6629 3 43.7143 3C52.7657 3 60.2743 9.695 61.5086 18.45H77.1429C79.8708 18.45 82.487 19.5352 84.416 21.4668C86.3449 23.3984 87.4286 26.0183 87.4286 28.75V44.406C94.8857 45.4875 100.851 51.101 102.394 58.414C97.8227 55.8475 92.6695 51.4997 87.4286 51.5H80.1429V25.75H54.4286V20.025C54.4286 15.7505 47.9829 10.3 43.7143 10.3C39.4457 10.3 33 15.7505 33 20.025V25.75H7.28571V42.668C16.3371 46.17 21.7143 51.925 21.7143 62.225C21.7143 72.525 16.2857 78.28 7.28571 81.782V98.7H24.1886C25.9509 94.1514 29.0447 89.2422 33.0644 86.4852C37.0842 83.7281 38.8421 83.2518 43.7143 83.25C48.4971 83.25 52.92 84.692 56.5714 87.061V88.4C56.5714 96.331 59.5543 100.541 64.4914 106H57.6ZM87.4286 96.1635L74.5714 103.837L78.0686 89.3655L66.8571 79.6835L81.6171 78.396L87.4286 64.8L93.1371 78.396L108 79.6835L96.6857 89.3655L100.029 103.837L87.4286 96.1635Z" fill="url(#paint0_linear_68_319)"/>
<defs>
<linearGradient id="paint0_linear_68_319" x1="0" y1="3" x2="93.7467" y2="117.654" gradientUnits="userSpaceOnUse">
<stop stop-color="#4091DB"/>
<stop offset="1" stop-color="#35D0FA"/>
</linearGradient>
</defs>
</svg>

<svg width="108" height="108" fill="none" xmlns="http://www.w3.org/2000/svg"><path d="M57.6 106v-1.545c0-7.674-6.171-13.905-13.886-13.905-7.714 0-13.885 6.231-13.885 13.905V106H10.286a10.277 10.277 0 01-7.273-3.017A10.306 10.306 0 010 95.7V76.13h1.543a13.87 13.87 0 0013.886-13.905A13.87 13.87 0 001.543 48.32H0V28.75c0-5.665 4.629-10.3 10.286-10.3H25.92C27.154 9.695 34.663 3 43.714 3c9.052 0 16.56 6.695 17.795 15.45h15.634c2.728 0 5.344 1.085 7.273 3.017a10.307 10.307 0 013.013 7.283v15.656c7.457 1.081 13.422 6.695 14.965 14.008-4.571-2.567-9.725-6.914-14.965-6.914h-7.286V25.75H54.429v-5.725c0-4.274-6.446-9.725-10.715-9.725C39.446 10.3 33 15.75 33 20.025v5.725H7.286v16.918c9.051 3.502 14.428 9.257 14.428 19.557 0 10.3-5.428 16.055-14.428 19.557V98.7h16.903c1.762-4.549 4.856-9.458 8.875-12.215 4.02-2.757 5.778-3.233 10.65-3.235 4.783 0 9.206 1.442 12.857 3.811V88.4c0 7.931 2.983 12.141 7.92 17.6H57.6zm29.829-9.837l-12.858 7.674 3.498-14.472-11.212-9.681 14.76-1.288L87.43 64.8l5.708 13.596L108 79.683l-11.314 9.682 3.343 14.472-12.6-7.674z" fill="url(#paint0_linear_68_319)"/><defs><linearGradient id="paint0_linear_68_319" x1="0" y1="3" x2="93.747" y2="117.654" gradientUnits="userSpaceOnUse"><stop stop-color="#4091DB"/><stop offset="1" stop-color="#35D0FA"/></linearGradient></defs></svg>ll="url(#paint0_linear_68_319)"/>
<defs>
<linearGradient id="paint0_linear_68_319" x1="0" y1="3" x2="93.7467" y2="117.654" gradientUnits="userSpaceOnUse">
<stop stop-color="#4091DB"/>
<stop offset="1" stop-color="#35D0FA"/>
</linearGradient>
</defs>
</svg>
